svg/part/baby_line.svg

<?xml version="1.0" encoding="UTF-8"?>
<svg width="24px" height="24px" viewBox="0 0 24 24" version="1.1" xmlns="http://www.w3.org/2000/svg" xmlns:xlink="http://www.w3.org/1999/xlink">
    <title>baby_line</title>
    <g id="Icon" stroke="none" stroke-width="1" fill="none" fill-rule="evenodd">
        <g id="Part" transform="translate(-240.000000, -192.000000)" fill-rule="nonzero">
            <g id="baby_line" transform="translate(240.000000, 192.000000)">
                <path d="M24,0 L24,24 L0,24 L0,0 L24,0 Z M12.5935,23.2578 L12.5819,23.2595 L12.5109,23.295 L12.4919,23.2987 L12.4767,23.295 L12.4057,23.2595 C12.3958,23.2564 12.387,23.259 12.3821,23.2649 L12.378,23.2758 L12.3609,23.7031 L12.3659,23.7235 L12.3769,23.7357 L12.4805,23.8097 L12.4953,23.8136 L12.5071,23.8097 L12.6107,23.7357 L12.6233,23.7197 L12.6267,23.7031 L12.6096,23.2758 C12.6076,23.2657 12.601,23.2593 12.5935,23.2578 Z M12.8584,23.1453 L12.8445,23.1473 L12.6598,23.2397 L12.6499,23.2499 L12.6472,23.2611 L12.6651,23.6906 L12.6699,23.7034 L12.6784,23.7105 L12.8793,23.8032 C12.8914,23.8069 12.9022,23.803 12.9078,23.7952 L12.9118,23.7812 L12.8777,23.1665 C12.8753,23.1546 12.8674,23.147 12.8584,23.1453 Z M12.143,23.1473 C12.1332,23.1424 12.1222,23.1453 12.1156,23.1526 L12.1099,23.1665 L12.0758,23.7812 C12.0751,23.7927 12.0828,23.8019 12.0926,23.8046 L12.1083,23.8032 L12.3092,23.7105 L12.3186,23.7024 L12.3225,23.6906 L12.3404,23.2611 L12.3372,23.2485 L12.3278,23.2397 L12.143,23.1473 Z" id="MingCute"></path>
                <path d="M12,2 C17.5228,2 22,6.47715 22,12 C22,17.5228 17.5228,22 12,22 C6.47715,22 2,17.5228 2,12 C2,6.47715 6.47715,2 12,2 Z M12,4 C7.58172,4 4,7.58172 4,12 C4,16.4183 7.58172,20 12,20 C16.4183,20 20,16.4183 20,12 C20,8.63089 17.9173,5.74821 14.9692,4.56914 C14.9894,4.7098 14.9999,4.85365 14.9999,4.99996 C14.9999,6.65681 13.6568,7.99996 11.9999,7.99996 C11.2398,7.99996 10.5435,7.71594 10.0153,7.2497 C9.6012,6.88423 9.5618,6.25229 9.92726,5.83822 C10.2645892,5.45600154 10.8290465,5.39302852 11.2395123,5.67305406 L11.3387,5.75022 C11.5156,5.90634 11.7456,5.99996 11.9999,5.99996 C12.5522,5.99996 12.9999,5.55224 12.9999,4.99996 C12.9999,4.53538 12.6822,4.1425 12.2507,4.03141 C12.1634,4.00894 12.0915,4 12,4 Z M14.6401,15.2317 C15.0644,15.5852 15.1218,16.2158 14.7683,16.6401 C14.0961,17.4469 13.1237,18 12,18 C10.8763,18 9.90392,17.4469 9.2317,16.6401 C8.87819,16.2158 8.93559,15.5852 9.35991,15.2317 C9.78423,14.8782 10.4148,14.9356 10.7683,15.3599 C11.1268,15.7902 11.5663,16 12,16 C12.4337,16 12.8732,15.7902 13.2317,15.3599 C13.5852,14.9356 14.2158,14.8782 14.6401,15.2317 Z M8.5,10 C9.32843,10 10,10.6716 10,11.5 C10,12.3284 9.32843,13 8.5,13 C7.67157,13 7,12.3284 7,11.5 C7,10.6716 7.67157,10 8.5,10 Z M15.5,10 C16.3284,10 17,10.6716 17,11.5 C17,12.3284 16.3284,13 15.5,13 C14.6716,13 14,12.3284 14,11.5 C14,10.6716 14.6716,10 15.5,10 Z" id="形状" fill="#09244B"></path>
            </g>
        </g>
    </g>
</svg>

<svg xmlns="http://www.w3.org/2000/svg" width="24" height="24"><g fill="none" fill-rule="nonzero"><path d="M24 0v24H0V0h24ZM12.594 23.258l-.012.002-.071.035-.02.004-.014-.004-.071-.036c-.01-.003-.019 0-.024.006l-.004.01-.017.428.005.02.01.013.104.074.015.004.012-.004.104-.074.012-.016.004-.017-.017-.427c-.002-.01-.009-.017-.016-.018Zm.264-.113-.014.002-.184.093-.01.01-.003.011.018.43.005.012.008.008.201.092c.012.004.023 0 .029-.008l.004-.014-.034-.614c-.003-.012-.01-.02-.02-.022Zm-.715.002a.023.023 0 0 0-.027.006l-.006.014-.034.614c0 .012.007.02.017.024l.015-.002.201-.093.01-.008.003-.011.018-.43-.003-.012-.01-.01-.184-.092Z"/><path fill="#09244B" d="M12 2c5.523 0 10 4.477 10 10s-4.477 10-10 10S2 17.523 2 12 6.477 2 12 2Zm0 2a8 8 0 1 0 2.97.57 3 3 0 0 1-4.954 2.68 1 1 0 0 1 1.224-1.577l.099.077A1 1 0 1 0 12 4Zm2.64 11.232a1 1 0 0 1 .128 1.408C14.096 17.447 13.124 18 12 18c-1.124 0-2.096-.553-2.768-1.36a1 1 0 0 1 1.536-1.28c.359.43.798.64 1.232.64.434 0 .873-.21 1.232-.64a1 1 0 0 1 1.408-.128ZM8.5 10a1.5 1.5 0 1 1 0 3 1.5 1.5 0 0 1 0-3Zm7 0a1.5 1.5 0 1 1 0 3 1.5 1.5 0 0 1 0-3Z"/></g></svg>
